X:1
T:Title
%%score ( 1 2 ) { 3 | 4 }
L:1/8
Q:1/4=110
M:4/4
K:Eb
V:1 treble nm="Grand Piano, Soprano"
V:2 treble 
V:3 bass nm="Choir Pad, Scotia, 77.77.77"
V:4 bass 
V:1
 [EB]2 [DA][EG] [DG]2 [DF]2 | E2 [DF]2 [EG]4 | [FA]2 [FB]2 [EA]2 [EG]2 | [EG]2 [EF]2 [DF]4 | %4
w: By~William~Daylrymple~MacLagan~(1826\-1910) * * * *||||
 [EB]2 [DA][EG] [DG]2 [DF]2 | E2 [DF]2 [EG]4 | [E=A]2 [DB]2 [Cc]2 [_DB]2 | [DB]2 [E=A]2 [DB]4 | %8
w: ||||
 z2 .d2 z4 | [EA]2 [EB]2 [Ec]4 | [EB]2 E2 [DA]2 [EG]2 | [DG]2 [DF]2 E4- | E4 z4 |] %13
w: |||||
V:2
 x8 | x8 | x8 | x8 | x8 | x8 | x8 | x8 | [Ee]2 A-[Ac] [GB]2 [EG]2 | x8 | x8 | x8 | x8 |] %13
V:3
 B,2 B,2 B,2 A,2 | G,2 B,2 B,4 | B,2 B,2 C2 B,2 | B,2 =A,2 B,4 | B,2 B,2 B,2 A,2 | G,2 B,2 B,4 | %6
 F,2 F,2 G,2 G,2 | B,2 C2 B,4 | G,2 F,2 B,2 B,2 | C2 G,2 A,4 | B,2 B,2 B,2 B,2 | B,2 A,2 G,4- | %12
 G,4 z4 |] %13
V:4
 G,2 F,E, B,,2 B,,2 | C,2 C,2 E,4 | D,2 D,2 E,2 E,2 | C,2 C,2 B,,4 | G,2 F,E, B,,2 B,,2 | %5
 C,2 B,,2 E,4 | C,2 B,,2 E,2 =E,2 | F,2 F,2 B,,4 | C,2 D,2 E,2 _D,2 | C,2 B,,2 A,,4 | %10
 G,,2 G,2 F,2 E,2 | B,,2 B,,2 E,4- | E,4 z4 |] %13

